dist/images/icons/twitter.svg

<svg width="21" height="17" viewBox="0 0 21 17" fill="none" xmlns="http://www.w3.org/2000/svg">
<path d="M20.5263 1.98083C19.7715 2.30645 18.95 2.54079 18.1039 2.63207C18.9824 2.11018 19.6402 1.28568 19.954 0.313264C19.1297 0.803639 18.2267 1.1475 17.2849 1.32959C16.8914 0.908817 16.4153 0.573611 15.8865 0.344858C15.3577 0.116105 14.7875 -0.00129299 14.2113 -2.02793e-05C11.8802 -2.02793e-05 10.0054 1.88956 10.0054 4.20836C10.0054 4.53397 10.0449 4.85959 10.109 5.17288C6.61846 4.99033 3.50535 3.32277 1.4357 0.769624C1.05859 1.41375 0.860965 2.14715 0.863398 2.89355C0.863398 4.3539 1.60591 5.64157 2.73817 6.39888C2.07091 6.3726 1.41928 6.1892 0.836263 5.86358V5.91539C0.836263 7.96037 2.28181 9.65507 4.20839 10.0448C3.84666 10.1388 3.47453 10.1869 3.10079 10.1879C2.82698 10.1879 2.56796 10.1608 2.30648 10.1238C2.83931 11.7913 4.39093 13.0025 6.23857 13.042C4.79302 14.1743 2.98239 14.8403 1.01634 14.8403C0.663587 14.8403 0.337968 14.828 1.52588e-05 14.7885C1.86492 15.9849 4.07765 16.6756 6.46059 16.6756C14.1965 16.6756 18.4295 10.2668 18.4295 4.70418C18.4295 4.52164 18.4295 4.3391 18.4172 4.15655C19.2362 3.55712 19.954 2.81461 20.5263 1.98083Z" fill="#31352B"/>
</svg>

<svg width="21" height="17" fill="none" xmlns="http://www.w3.org/2000/svg"><path d="M20.526 1.98a8.436 8.436 0 01-2.422.652 4.196 4.196 0 001.85-2.319 8.303 8.303 0 01-2.67 1.017A4.195 4.195 0 0014.212 0a4.205 4.205 0 00-4.206 4.208c0 .326.04.652.104.965A11.954 11.954 0 011.436.77a4.177 4.177 0 00-.573 2.124 4.21 4.21 0 001.875 3.505 4.243 4.243 0 01-1.902-.535v.051a4.207 4.207 0 003.372 4.13 4.451 4.451 0 01-1.107.143 5.61 5.61 0 01-.795-.064 4.214 4.214 0 003.933 2.918 8.43 8.43 0 01-5.223 1.798c-.352 0-.678-.012-1.016-.051a11.911 11.911 0 006.46 1.887c7.737 0 11.97-6.41 11.97-11.972 0-.182 0-.365-.013-.547a9.06 9.06 0 002.11-2.176z" fill="#31352B"/></svg>
